X:1
T:Title
L:1/8
Q:1/4=120
M:4/4
K:G
V:1 treble nm="Church Organ, Staff"
V:1
 d2 B2- B/ z/ A A2 | B2 A2 G2 D2 | G2 E2- E/ z/ D E2 | A2 A2 G2 E2 | D2 E2- E/ z/ F G2 | %5
w: By~Charles~Vincent * * * *|||||
 A2 B2 d2 e2 | d2 B2- B/ z/ G A2 | B2 B2- B/ z/ A A2 | d2 B2- B/ z/ A A2 | B2 A2 G2 D2 | %10
w: |||||
 G2 E2- E/ z/ G A2 | G2 c4 c2- | c2 B6 |] %13
w: |||

